themes/asg/static/images/sponsors/amazon.svg

<svg width="91" height="28" viewBox="0 0 91 28" fill="none" xmlns="http://www.w3.org/2000/svg">
<path d="M56.6595 21.8059C51.4393 25.6203 43.8791 27.7063 37.3389 27.7063C28.2186 27.7063 19.9384 24.3091 13.6982 18.7663C13.2182 18.3491 13.6382 17.7531 14.2382 18.0511C20.9584 21.9251 29.2987 24.2495 37.8789 24.2495C43.6991 24.2495 50.0593 23.0575 55.8794 20.5543C56.7795 20.1967 57.4995 21.1503 56.6595 21.8059Z" fill="white"/>
<path d="M58.8207 19.3036C58.1607 18.4692 54.3805 18.8864 52.7005 19.1248C52.2205 19.1844 52.1005 18.7672 52.5805 18.4096C55.5806 16.3236 60.4407 16.9196 61.0407 17.6348C61.5808 18.35 60.9207 23.2372 58.1006 25.5616C57.6806 25.9192 57.2606 25.7404 57.4406 25.2636C58.1007 23.714 59.4807 20.1976 58.8207 19.3036Z" fill="white"/>
<path d="M52.8208 3.68684V1.66044C52.8208 1.36244 53.0608 1.12402 53.3609 1.12402H62.5411C62.8411 1.12402 63.0811 1.30284 63.0811 1.66044V3.38884C63.0811 3.68684 62.8411 4.04444 62.4211 4.64045L57.621 11.3753C59.361 11.3157 61.2811 11.6137 62.8411 12.5077C63.2011 12.6865 63.3211 12.9845 63.3211 13.2825V15.4281C63.3211 15.7261 63.0211 16.0837 62.6611 15.9049C59.841 14.4149 56.1209 14.2957 53.0008 15.9049C52.7008 16.0837 52.3408 15.7261 52.3408 15.4281V13.4017C52.3408 13.1037 52.3408 12.5077 52.7008 12.0309L58.161 4.22324H53.3609C53.0608 4.16364 52.8208 3.98484 52.8208 3.68684Z" fill="white"/>
<path d="M19.3973 16.3822H16.6372C16.3972 16.3822 16.1572 16.1438 16.1572 15.9054V1.7206C16.1572 1.42259 16.3972 1.2438 16.6972 1.2438H19.2773C19.5173 1.2438 19.7573 1.48219 19.7573 1.7206V3.5682H19.8173C20.4773 1.7802 21.7974 0.945801 23.4774 0.945801C25.2175 0.945801 26.2975 1.7802 27.0775 3.5682C27.7375 1.7802 29.2976 0.945801 30.9176 0.945801C32.0577 0.945801 33.3777 1.42261 34.1577 2.49541C35.0578 3.68741 34.8777 5.41581 34.8777 6.96542V15.9054C34.8777 16.2034 34.6378 16.4418 34.3377 16.4418H31.5776C31.2776 16.4418 31.0976 16.2034 31.0976 15.9054V8.33621C31.0976 7.74021 31.1577 6.25021 31.0376 5.65421C30.8576 4.70061 30.1976 4.46221 29.4176 4.46221C28.7576 4.46221 28.0376 4.8794 27.7376 5.5946C27.4375 6.30981 27.4975 7.50181 27.4975 8.33621V15.8458C27.4975 16.1438 27.2575 16.3822 26.9575 16.3822H24.1974C23.8974 16.3822 23.7174 16.1438 23.7174 15.8458V8.33621C23.7174 6.72701 23.9574 4.4026 21.9774 4.4026C19.9973 4.4026 20.0573 6.66741 20.0573 8.33621V15.8458C19.9373 16.1438 19.6973 16.3822 19.3973 16.3822Z" fill="white"/>
<path d="M70.8771 0.884277C75.0172 0.884277 77.2373 4.40068 77.2373 8.87069C77.2373 13.2215 74.7772 16.6187 70.8771 16.6187C66.797 16.6187 64.637 13.1023 64.637 8.6919C64.637 4.28149 66.857 0.884277 70.8771 0.884277ZM70.9371 3.74509C68.8971 3.74509 68.7771 6.54629 68.7771 8.27469C68.7771 10.0031 68.7771 13.6983 70.9371 13.6983C73.0972 13.6983 73.2172 10.7183 73.2172 8.87069C73.2172 7.67869 73.1572 6.24829 72.7972 5.11589C72.4372 4.16229 71.8372 3.74509 70.9371 3.74509Z" fill="white"/>
<path d="M82.639 16.3803H79.8789C79.5789 16.3803 79.3989 16.1419 79.3989 15.8439V1.65909C79.3989 1.42069 79.6389 1.18228 79.939 1.18228H82.519C82.759 1.18228 82.939 1.36109 82.999 1.59949V3.7451H83.0591C83.8391 1.77829 84.9191 0.884277 86.8991 0.884277C88.1592 0.884277 89.3592 1.30149 90.1392 2.55309C90.8593 3.68549 90.8593 5.5927 90.8593 6.9635V15.9035C90.8593 16.1419 90.6193 16.3207 90.3192 16.3207H87.4992C87.2592 16.3207 87.0192 16.1419 87.0192 15.9035V8.1555C87.0192 6.6059 87.1991 4.3411 85.2791 4.3411C84.6191 4.3411 83.9591 4.75829 83.6591 5.4735C83.2991 6.3079 83.2391 7.2019 83.2391 8.1555V15.7843C83.179 16.1419 82.939 16.3803 82.639 16.3803Z" fill="white"/>
<path d="M45.1374 9.58647V8.99047C43.0974 8.99047 40.9973 9.40768 40.9973 11.7917C40.9973 12.9837 41.5973 13.8181 42.6773 13.8181C43.4574 13.8181 44.1774 13.3413 44.5974 12.5665C45.1374 11.5533 45.1374 10.6593 45.1374 9.58647ZM47.9575 16.3213C47.7775 16.5001 47.5375 16.5001 47.2975 16.3809C46.3975 15.6061 46.2174 15.2485 45.6774 14.5333C44.1774 16.0829 43.0374 16.5597 41.1173 16.5597C38.7772 16.5597 36.9772 15.1293 36.9772 12.2685C36.9772 10.0037 38.1772 8.51366 39.9773 7.73886C41.4773 7.08326 43.6374 6.96406 45.1974 6.78526V6.42767C45.1974 5.77207 45.2574 4.99725 44.8374 4.40125C44.4774 3.92445 43.8774 3.68606 43.2774 3.68606C42.1973 3.68606 41.2973 4.22246 41.0573 5.35486C40.9973 5.59326 40.8173 5.83167 40.5773 5.83167L37.8772 5.53367C37.6372 5.47407 37.3972 5.29527 37.4572 4.93767C38.0572 1.65966 41.0573 0.706055 43.6974 0.706055C45.0774 0.706055 46.8175 1.06365 47.8975 2.07685C49.2775 3.32845 49.0975 4.99726 49.0975 6.84486V11.1361C49.0975 12.4473 49.6376 12.9837 50.1176 13.6989C50.2976 13.9373 50.3576 14.2353 50.1176 14.4141C49.5175 14.9505 48.4975 15.8445 47.9575 16.3213Z" fill="white"/>
<path d="M9.0174 9.58647V8.99047C6.97734 8.99047 4.87726 9.40768 4.87726 11.7917C4.87726 12.9837 5.47731 13.8181 6.55734 13.8181C7.33737 13.8181 8.05736 13.3413 8.47737 12.5665C9.01738 11.5533 9.0174 10.6593 9.0174 9.58647ZM11.8375 16.3213C11.6575 16.5001 11.4175 16.5001 11.1774 16.3809C10.2774 15.6061 10.0974 15.2485 9.55743 14.5333C8.05739 16.0829 6.91733 16.5597 4.99728 16.5597C2.65721 16.5597 0.857178 15.1293 0.857178 12.2685C0.857178 10.0037 2.05721 8.51366 3.85726 7.73886C5.35731 7.08326 7.51734 6.96406 9.07739 6.78526V6.42767C9.07739 5.77207 9.1374 4.99725 8.71739 4.40125C8.35738 3.92445 7.75738 3.68606 7.15736 3.68606C6.07733 3.68606 5.1773 4.22246 4.93729 5.35486C4.87729 5.59326 4.69729 5.83167 4.45728 5.83167L1.7572 5.53367C1.5172 5.47407 1.27718 5.29527 1.33718 4.93767C1.9372 1.65966 4.93727 0.706055 7.57734 0.706055C8.95738 0.706055 10.6974 1.06365 11.7775 2.07685C13.1575 3.32845 12.9775 4.99726 12.9775 6.84486V11.1361C12.9775 12.4473 13.5175 12.9837 13.9975 13.6989C14.1775 13.9373 14.2375 14.2353 13.9975 14.4141C13.3975 14.9505 12.3775 15.8445 11.8375 16.3213Z" fill="white"/>
</svg>

<svg width="91" height="28" fill="none" xmlns="http://www.w3.org/2000/svg"><path d="M56.66 21.806c-5.22 3.814-12.78 5.9-19.321 5.9-9.12 0-17.4-3.397-23.64-8.94-.48-.417-.06-1.013.54-.715 6.72 3.874 15.06 6.199 23.64 6.199 5.82 0 12.18-1.192 18-3.696.9-.357 1.62.596.78 1.252z" fill="#fff"/><path d="M58.82 19.304c-.66-.835-4.44-.418-6.12-.18-.48.06-.6-.357-.12-.714 3-2.086 7.86-1.49 8.46-.775.54.715-.12 5.602-2.94 7.927-.42.357-.84.178-.66-.298.66-1.55 2.04-5.066 1.38-5.96zm-6-15.617V1.66c0-.298.24-.536.54-.536h9.181c.3 0 .54.179.54.536v1.73c0 .298-.24.655-.66 1.251l-4.8 6.735c1.74-.06 3.66.239 5.22 1.133.36.179.48.477.48.775v2.145c0 .298-.3.656-.66.477-2.82-1.49-6.54-1.61-9.66 0-.3.179-.66-.179-.66-.477v-2.026c0-.298 0-.894.36-1.371l5.46-7.808h-4.8c-.3-.06-.54-.238-.54-.536zM19.397 16.382h-2.76c-.24 0-.48-.238-.48-.477V1.721c0-.298.24-.477.54-.477h2.58c.24 0 .48.238.48.477v1.847h.06c.66-1.788 1.98-2.622 3.66-2.622 1.74 0 2.82.834 3.6 2.622.66-1.788 2.22-2.622 3.84-2.622 1.14 0 2.46.477 3.24 1.55.9 1.191.72 2.92.72 4.47v8.94c0 .297-.24.536-.54.536h-2.76c-.3 0-.48-.239-.48-.537V8.336c0-.596.06-2.086-.06-2.682-.18-.953-.84-1.192-1.62-1.192-.66 0-1.38.417-1.68 1.133-.3.715-.24 1.907-.24 2.741v7.51c0 .298-.24.536-.54.536h-2.76c-.3 0-.48-.238-.48-.536v-7.51c0-1.609.24-3.933-1.74-3.933s-1.92 2.264-1.92 3.933v7.51c-.12.298-.36.536-.66.536zM70.877.884c4.14 0 6.36 3.517 6.36 7.987 0 4.35-2.46 7.748-6.36 7.748-4.08 0-6.24-3.517-6.24-7.927s2.22-7.808 6.24-7.808zm.06 2.861c-2.04 0-2.16 2.801-2.16 4.53 0 1.728 0 5.423 2.16 5.423s2.28-2.98 2.28-4.827c0-1.192-.06-2.623-.42-3.755-.36-.954-.96-1.37-1.86-1.37zM82.639 16.38h-2.76c-.3 0-.48-.238-.48-.536V1.659c0-.238.24-.477.54-.477h2.58c.24 0 .42.18.48.417v2.146h.06c.78-1.967 1.86-2.86 3.84-2.86 1.26 0 2.46.416 3.24 1.668.72 1.132.72 3.04.72 4.41v8.94c0 .239-.24.418-.54.418H87.5c-.24 0-.48-.18-.48-.418V8.155c0-1.55.18-3.814-1.74-3.814-.66 0-1.32.417-1.62 1.132-.36.835-.42 1.729-.42 2.683v7.628c-.06.358-.3.596-.6.596zM45.137 9.586V8.99c-2.04 0-4.14.418-4.14 2.802 0 1.192.6 2.026 1.68 2.026.78 0 1.5-.477 1.92-1.252.54-1.013.54-1.907.54-2.98zm2.82 6.735c-.18.18-.42.18-.66.06-.9-.775-1.08-1.133-1.62-1.848-1.5 1.55-2.64 2.027-4.56 2.027-2.34 0-4.14-1.43-4.14-4.291 0-2.265 1.2-3.755 3-4.53 1.5-.656 3.66-.775 5.22-.954v-.357c0-.656.06-1.43-.36-2.027-.36-.477-.96-.715-1.56-.715-1.08 0-1.98.536-2.22 1.669-.06.238-.24.477-.48.477l-2.7-.298c-.24-.06-.48-.239-.42-.596.6-3.278 3.6-4.232 6.24-4.232 1.38 0 3.12.358 4.2 1.37 1.38 1.252 1.2 2.921 1.2 4.769v4.291c0 1.311.54 1.848 1.02 2.563.18.238.24.536 0 .715-.6.537-1.62 1.43-2.16 1.907zM9.017 9.586V8.99c-2.04 0-4.14.418-4.14 2.802 0 1.192.6 2.026 1.68 2.026.78 0 1.5-.477 1.92-1.252.54-1.013.54-1.907.54-2.98zm2.82 6.735c-.18.18-.42.18-.66.06-.9-.775-1.08-1.133-1.62-1.848-1.5 1.55-2.64 2.027-4.56 2.027-2.34 0-4.14-1.43-4.14-4.291 0-2.265 1.2-3.755 3-4.53 1.5-.656 3.66-.775 5.22-.954v-.357c0-.656.06-1.43-.36-2.027-.36-.477-.96-.715-1.56-.715-1.08 0-1.98.536-2.22 1.669-.06.238-.24.477-.48.477l-2.7-.298c-.24-.06-.48-.239-.42-.596.6-3.278 3.6-4.232 6.24-4.232 1.38 0 3.12.358 4.2 1.37 1.38 1.252 1.2 2.921 1.2 4.769v4.291c0 1.311.54 1.848 1.02 2.563.18.238.24.536 0 .715-.6.537-1.62 1.43-2.16 1.907z" fill="#fff"/></svg>
